X:1
T:Croydon (Ching), 10.10.12.10
T:Croydon (Ching), 10.10.12.10
T:Samuel Ching, 1904
T:Public Domain Courtesy of the Cyber Hymnal™
C:Samuel Ching, 1904
Z:Public Domain
Z:Courtesy of the Cyber Hymnal™
%%score 1 ( 2 3 )
L:1/8
Q:1/4=110
M:3/4
K:Bb
V:1 treble 
V:2 bass 
V:3 bass 
V:1
 [DF]2 [DG]2 [DB]2 | [EB]3 [EA] [EA]2 | [EA]2 [EG]2 [EF]2 | [DF]6 | [DF]2 [DG]2 [DB]2 | %5
 [=Ed]3 [Fc] [Fc]2 | [FB]2 [FG]2 [=EA]2 | [CF]6 | [EA]2 [Ed]2 [Ec]2 | [Ec]3 [DB] [DF]2 | %10
 [C^F]2 [CB]2 [CA]2 | [CA]3 [B,G] [B,G]2 | [_DG]2 [DA]2 [DB]2 | [DB]3 [DF] [DF]2 | %14
 [DB]2 [=Ec]2 [_Ec]2 | [DB]6 |] %16
V:2
 [B,,F,]2 [B,,F,]2 [B,,F,]2 | [C,F,]3 [C,F,] [C,F,]2 | [F,,A,]2 [G,,B,]2 [A,,C]2 | [B,,B,]6 | %4
 [B,,F,]2 [B,,F,]2 [B,,F,]2 | [G,,B,]3 [A,,C] [A,,C]2 | [B,,D]2 [D,B,]2 [C,C]2 | [F,A,]6 | %8
 [F,C]2 [F,G,]2 [F,A,]2 | [B,,A,]3 [B,,B,] [B,,B,]2 | [D,A,]2 [D,=E,]2 [D,^F,]2 | %11
 [G,,^F,]3 [G,,G,] [G,,G,]2 | [=E,B,]2 [E,A,]2 [E,G,]2 | F,3 [F,B,] [F,B,]2 | %14
 [G,B,]2 [C,B,]2 [F,A,]2 | [B,,B,]6 |] %16
V:3
 x6 | x6 | x6 | x6 | x6 | x6 | x6 | x6 | x6 | x6 | x6 | x6 | x6 | F,3 x3 | x6 | x6 |] %16

